X:1
T:Psalm 31 (Becker) - Schütz
T:James Gibb editions
%%score [ ( 1 2 ) ( 3 4 ) ]
L:1/8
Q:1/4=121
M:2/2
K:F
V:1 treble nm="Soprano Alto"
V:2 treble 
V:3 bass nm="Tenor Bass"
V:4 bass 
V:1
"^Cornelius Becker\n(1561-1604)""^Psalm 31, SWV 128""^Heinrich Schütz\n(1585-1672)" F4 F2 F2 | %1
w: ~In dich hab|
 (c3 B/A/ G2) A2 | B2 G2 F4 | F4 G2 A2 | B2 G4 c2- | c2 =B2 c4 |[M:2/2] A4 A2 c2 | B2 A2 F4 | %8
w: ich * * * ge-|hof- fet, Herr,|hilf, daß ich|nicht zu Schan\-|* den werd,|||
 G4 A4 | F2 G2 A4 | F4 G2 A2 | B4 A4 | G2 F2 (B3 A/B/ | c2) A2 G4 | F8 |] %15
w: ||||* * Treu, * *|* Herr Got-|te/|
V:2
 C4 C2 D2 | E6 C2 | D2 C2 C4 | C4 E2 F2 | F2 _E2 G4 | G4 G4 |[M:2/2] F4 F2 F2 | D2 C2 D4 | E4 C4 | %9
w: |||||||||
 D2 E2 F4 | C4 E2 F2 | F4 F4 | E2 D2 D4 | C2 (F4 E2) | F8 |] %15
w: |||* * Treu,|Herr Got\- *|te.|
V:3
 A,4 A,2 F,2 | G,6 F,2 | F,2 E,2 F,4 | A,4 C2 C2 | D2 B,2 _E4 | D4 C4 | %6
w: ||||||
[M:2/2]"^2. Dein gnädig Ohr neig her zu mir,\nerhör mein Bitt, tu dich herfür,\neil bald mich zu erretten, \nin Angst und Weh ich lieg und steh, \nhilf mir in meinen Nöten.\n\n4. Du bist mein Stärk, mein Fels, mein Hort, \nmein Schild, mein Kraft, sagt mir dein Wort, \nmein Hülf, mein Heil, mein Leben, \nmein starker Gott in aller Not, \nwer mag mir widerstreben.\n\n6. Herr, meinen Geist befehl ich dir,\nmein Gott, mein Gott, weich nicht von mir, \nnimm mich in deine Hände,\no treuer Gott, aus aller Not \nhilf mir am letzten Ende.\n\n10. Mein schwere Sünd und Missetat\nhat mich so gar sehr abgematt,\ndaß mir die Kräft entgangen,\nall mein Gebein verschmachtet sein,\nTrübnis hat mich umfangen." C4 C2 A,2 | %7
w: noch e- wig-|
 F,2 A,2 A,4 | C4 A,4 | A,2 C2 C4 | %10
w: lich zu Spot-|te, das|bitt ich dich,|
 A,4"^14. Wo flieh ich hin? Zu dir allein, \nund sprech: Du sollst mein Helfer sein!\nSteht doch in deinen Händen \nmein Leib und Leb'n, du hast mir's geb'n,\nohn dich werd ichs nicht enden.\n\n18. Groß ist, Herr, deine Gut fürwahr,\ndoch nicht allzeit gleich offenbar,\nin Trübsal viel verborgen, \nwer sich nur fest darauf verläßt,\nden wirst du wohl versorgen.\n\n20. Gott sei gelobt und hoch gepreist,\ner hat an mir groß Gnad beweist,\ntut mich gar wohl bewahren\nin fester Stadt, daß mir kein Schad\nnoch Leid mag widerfahren.\n\n23. Drum seid getrost und unverzagt\nall die ihrs habt mit Gott gewagt,\nhalt fest, und steht ohn Wanken,\nzu rechter Zeit hilft er zur Freud,\ndes werd't ihr ihm noch danken." C2 C2 | %11
w: er- hal- te|
 D4 C4 | C2 F,2 (F,3 G, | A,2) C2 C4 | C8 |] %15
w: mich in|dei- ner Treu, *|* Herr Got-|te.|
V:4
 F,4 F,2 D,2 | (C,3 D, E,2) F,2 | B,,2 C,2 F,,4 | F,4 C,2 F,2 | B,,2 _E,2 C,4 | G,4 C,4 | %6
w: ||||||
[M:2/2] F,4 F,2 F,2 | B,,2 F,2 D,4 | C,4 F,4 | D,2 C,2 F,4 | F,4 C,2 F,2 | B,,4 F,4 | %12
w: ||||||
 C,2 D,2 B,,4 | F,4 C,4 | F,8 |] %15
w: * * Treu,|Herr Got-|te.|

